icons/src/svg/proportions.svg

<svg width="32" height="32" viewBox="0 0 32 32" fill="none" xmlns="http://www.w3.org/2000/svg">
<path fill-rule="evenodd" clip-rule="evenodd" d="M13 20.9997C13 21.552 12.5523 21.9997 12 21.9997H8C4.68629 21.9997 2 19.3134 2 15.9997C2 12.686 4.68629 9.99976 8 9.99976H12C12.5523 9.99976 13 10.4474 13 10.9997C13 11.552 12.5523 11.9997 12 11.9997H8C5.79086 11.9997 4 13.7906 4 15.9997C4 18.2089 5.79086 19.9997 8 19.9997H12C12.5523 19.9997 13 20.4474 13 20.9997ZM19 11.0001C19 10.4478 19.4477 10.0001 20 10.0001H24C27.3137 10.0001 30 12.6864 30 16.0001C30 19.3138 27.3137 22.0001 24 22.0001H20C19.4477 22.0001 19 21.5524 19 21.0001C19 20.4478 19.4477 20.0001 20 20.0001H24C26.2091 20.0001 28 18.2092 28 16.0001C28 13.7909 26.2091 12.0001 24 12.0001H20C19.4477 12.0001 19 11.5524 19 11.0001ZM8.00075 15.0005C7.44859 15.0005 7.00098 15.4481 7.00098 16.0002C7.00098 16.5524 7.44859 17 8.00075 17H24.0008C24.5529 17 25.0005 16.5524 25.0005 16.0002C25.0005 15.4481 24.5529 15.0005 24.0008 15.0005H8.00075Z" fill="#0D0F13"/>
</svg>

<svg fill="none" xmlns="http://www.w3.org/2000/svg" viewBox="0 0 32 32">
  <path fill-rule="evenodd" clip-rule="evenodd" d="M13 21a1 1 0 0 1-1 1H8a6 6 0 0 1 0-12h4a1 1 0 1 1 0 2H8a4 4 0 0 0 0 8h4a1 1 0 0 1 1 1Zm6-10a1 1 0 0 1 1-1h4a6 6 0 0 1 0 12h-4a1 1 0 1 1 0-2h4a4 4 0 0 0 0-8h-4a1 1 0 0 1-1-1ZM8 15a1 1 0 1 0 0 2h16a1 1 0 0 0 0-2H8Z" fill="currentColor"/>
</svg>
